packages/icons/svg/Service_Delivery_Delivery--Home_32px.svg

<svg xmlns="http://www.w3.org/2000/svg" viewBox="0 0 32 32"><path d="M9.5 12a.5.5 0 00-.5-.5H3.5a.5.5 0 000 1H9a.5.5 0 00.5-.5zM9 14.23H6a.5.5 0 00-.5.5.5.5 0 00.5.5h3a.5.5 0 00.5-.5.5.5 0 00-.5-.5zM9.5 17.5A.5.5 0 009 17H4.5a.5.5 0 000 1H9a.5.5 0 00.5-.5z"/><path d="M27 14l-1.07-3.57A2 2 0 0024 9h-3a2 2 0 00-2-2H7a2 2 0 00-2 2v1h2V9h12v6a1 1 0 001 1 1 1 0 001-1v-4h3l1.5 5H27v5h-1.16a3.48 3.48 0 00-6.9 0h-3A3.48 3.48 0 009 21H7v-1.5H5V21a2 2 0 002 2h2.31a3.48 3.48 0 006.3 0h3.63a3.48 3.48 0 006.3 0H27a2 2 0 002-2v-5a2 2 0 00-2-2zm-14.54 9A1.5 1.5 0 1114 21.5a1.5 1.5 0 01-1.54 1.5zm9.93 0a1.5 1.5 0 111.5-1.5 1.5 1.5 0 01-1.5 1.5z"/></svg>

<svg xmlns="http://www.w3.org/2000/svg" viewBox="0 0 32 32"><defs></defs><g id="Icon"><path  d="M9.5,12a.5.5,0,0,0-.5-.5H3.5a.5.5,0,0,0,0,1H9A.5.5,0,0,0,9.5,12Z"/><path  d="M9,14.23H6a.5.5,0,0,0-.5.5.5.5,0,0,0,.5.5H9a.5.5,0,0,0,.5-.5A.5.5,0,0,0,9,14.23Z"/><path  d="M9.5,17.5A.5.5,0,0,0,9,17H4.5a.5.5,0,0,0,0,1H9A.5.5,0,0,0,9.5,17.5Z"/><path  d="M27,14h0l-1.07-3.57A2,2,0,0,0,24,9H21a2,2,0,0,0-2-2H7A2,2,0,0,0,5,9v1H7V9H19v6a1,1,0,0,0,1,1h0a1,1,0,0,0,1-1V11h3l1.5,5H27v5H25.84a3.48,3.48,0,0,0-6.9,0h-3A3.48,3.48,0,0,0,9,21H7V19.5H5V21a2,2,0,0,0,2,2H9.31a3.48,3.48,0,0,0,6.3,0h3.63a3.48,3.48,0,0,0,6.3,0H27a2,2,0,0,0,2-2V16A2,2,0,0,0,27,14ZM12.46,23A1.5,1.5,0,1,1,14,21.5,1.5,1.5,0,0,1,12.46,23Zm9.93,0a1.5,1.5,0,1,1,1.5-1.5A1.5,1.5,0,0,1,22.39,23Z"/></g></svg>
